!!!COM: Ce/cile Chaminade
!!!CNT: Francais
!!!TXO: Francais
!!!OTL: "Amoroso"
!!!LYR: Silvestre, Armand
!!!ENC: Amanda Harris
!!!YOR: Album of Songs, Volume 1
!!!YOR: Da Capo Press
!!!ODT: 1891/
!!NB: Vocal melody and text encoded
**kern	**silbe
*clefG2	*
*k[]	*
*M3/4	*
*MM[80]	*
=3	=3
{8cc	{Du
8b	prin-
4a	-temps,
8g	son-
8a	-nant
=4	=4
8b	le
8a	bap-
4e	-te^-
4d	-me,
=5	=5
8g	A-
8g#	-vril
4g#	passe
8a	aux
8a#	cieux
=6	=6
8b	e/-
8cc	-cla-
[4dd	-tants.
16dd]}	|}
16r	.
{8dd	{Il
=7	=7
8ee-	n'est
8dd	de
4cc#	char-
4gn	-me
=8	=8
8ee-	qu'en
8dd	toi
4cc#	me^-
4cc#	-me,
=9	=9
8dd	T'ai-
8g	-je
4ccn	dit
8b	de-
8an	-vant
=10	=10
8a	le
8g	prin-
[4g	-temps.
16g]}	|}
16r	.
{8g	{Au
=11	=11
8a	coeur
8a	en-
8a	-a-
8a	-mou-
8a	-re/
8a	des
=12	=12
4dd	ro-
4.f	-ses,
8b-	Qu'A-
=13	=13
8bn	-vril
8b	mette-
8b	-un
8b	ray-
8b.	-on
16b	joy-
=14	=14
2een}	-eux,}
{8ee	{Que
8ee	me
=15	=15
4ff	fait
8ee	la
8dd	beau-
8cc	-te/
8b	des
=16	=16
4dd	cho-
[4cc	-ses?
16cc]	|
16r	.
8e	Il
=17	=17
8f	n'est
8e	clar-
8f	-te/
8a	que
8B	dans
8d	tes
=18	=18
4.c}	yeux.}
8r	.
4r	.
=19	=19
{8cc	{Aux
8b	|
8a	bois,
8a	la
8g	main
8a	de
=20	=20
8b	l'e/-
8a	-te/
4e	se\-
4d	-me
=21	=21
8g	Les
8g#	par-
4g#	-fums
8a	a-
8a#	-vec
=22	=22
8b	les
8cc	cou-
[4dd	-leurs
16dd]}	|}
16r	.
{8dd	{Il
=23	=23
8ee-	n'est
8dd	de
4cc#	char-
4g	-me
=24	=24
8ee-	qu'en
8dd	toi
4cc#	me^-
4cc#	-me
=25	=25
8dd	T'ai-
8g	-je
4ccn	dit
8b	sous
8a	les
=26	=26
8a	bois
8g	en
[4g	fleurs.
16g]}	|}
16r	.
{8g	{Sous
=27	=27
8a	l'ai-
8a	-le
8a	des
8a	au-
8a	-tans
8a	mo-
=28	=28
4dd	-ro-
4.f	-ses
8b-	Un
=29	=29
8bn	jour
8b	les
8b	lys
8b	s'ef-
8b	-feuil-
8b	-le-
=30	=30
2een}	-ront.}
{8ee	{Que
8ee	me
=31	=31
4ff	fait
8ee	la
8dd	beau-
8cc	-te/
8b	des
=32	=32
4dd	cho-
[4cc	-ses?
16cc]	|
16r	.
8e	Il
=33	=33
8f	n'est
8e	blan-
8f	-cheur
8a	que
8B	sur
8d	ton
=34	=34
4.c}	front.}
8r	.
4r	.
=35	=35
{8cc	{Bri-
8b	-sant
4a	l'or
8g	de
8a	son
=36	=36
8b	di-
8a	-a-
4e	-de\-
8d	-me,
8g	Le
=37	=37
8g	ciel
8g#	vib-
4g#	-rant
8a	d'a-
8a#	|
=38	=38
8b	zur
8cc	se
[4dd	teint.
16cc]}	|}
16r	.
{8dd	{Il
=39	=39
8ee-	n'est
8dd	de
4cc#	char-
4gn	-me
=40	=40
8ee-	qu'en
8dd	toi-
4cc#	-me^-
4cc#	-me.
=41	=41
8dd	T'ai-
8g	-je
4cn	dit
8b	de-
8an	-vant
=42	=42
8a	le
8g	ma-
[4g	-tin!
16g]}	|}
16r	.
{8g	{Ce
=43	=43
8a	soir,
8a	le
8a	long
8a	des
8a	vit-
8a	-res
=44	=44
4dd	clo-
4f	-ses
8r	.
16b-	Sif-
16b-	-fle-
=45	=45
4bn	-ra
8b	l'a-
8b	-qui-
8.b	-lon
16b	mo-
=46	=46
2een}	-queur.}
{8ee	{Que
8ee	me
=47	=47
4ff	fait
8ee	la
8dd	beau-
8cc	-te/
8b	des
=48	=48
4dd	cho-
[4cc	-ses?
16cc]	|
16r	.
8e	Il
=49	=49
8f	n'est
8e	ciel
8f	pur
8a	que
8B	dans
8d	ton
=50	=50
4.c}	coeur.}
8r	.
4r	.
*-	*-
